icons/svg/24x24/poi/outline.svg

<svg width="24" height="24" fill="none" xmlns="http://www.w3.org/2000/svg">
  <path fill-rule="evenodd" clip-rule="evenodd" d="M12 13c-1.654 0-3-1.346-3-3s1.346-3 3-3 3 1.346 3 3-1.346 3-3 3zm0-8a5 5 0 00-5 5 5 5 0 005 5 5 5 0 005-5 5 5 0 00-5-5zm-.002 15.245C9.598 17.821 6 13.448 6 10c0-3.309 2.691-6 6-6s6 2.691 6 6c0 3.437-3.601 7.816-6.002 10.245zM12 2a8 8 0 00-8 8c0 6 8 13 8 13s8-7 8-13a8 8 0 00-8-8z" fill="#000"/>
</svg>

<svg xmlns="http://www.w3.org/2000/svg" width="24" height="24" viewBox="0 0 24 24">
  <path fill-rule="evenodd" d="M12,13 C10.346,13 9,11.654 9,10 C9,8.346 10.346,7 12,7 C13.654,7 15,8.346 15,10 C15,11.654 13.654,13 12,13 M12,5 C9.238,5 7,7.238 7,10 C7,12.762 9.238,15 12,15 C14.762,15 17,12.762 17,10 C17,7.238 14.762,5 12,5 M11.998,20.245 C9.598,17.821 6,13.448 6,10 C6,6.691 8.691,4 12,4 C15.309,4 18,6.691 18,10 C18,13.437 14.399,17.816 11.998,20.245 M12,2 C7.582,2 4,5.582 4,10 C4,16 12,23 12,23 C12,23 20,16 20,10 C20,5.582 16.418,2 12,2"/>
</svg>
